X:39
T:score131
L:1/4
Q:1/4=96
M:3/4
I:linebreak $
K:D
!p!"_dolce" (A- | A f e | d c e) | (d3- | d A B) |$ (A G) .A | (G F) .G | (F3 | E) z!p! (B- | %9
 B g f |$ e ^d f) | (e3- | e B c- | c d) .A | (A G) .E |$ (E3 | D) z z |] %17
